svg/part/bow_tie_fill.svg

<?xml version="1.0" encoding="UTF-8"?>
<svg width="24px" height="24px" viewBox="0 0 24 24" version="1.1" xmlns="http://www.w3.org/2000/svg" xmlns:xlink="http://www.w3.org/1999/xlink">
    <title>bow_tie_fill</title>
    <g id="Icon" stroke="none" stroke-width="1" fill="none" fill-rule="evenodd">
        <g id="Part" transform="translate(-480.000000, -48.000000)" fill-rule="nonzero">
            <g id="bow_tie_fill" transform="translate(480.000000, 48.000000)">
                <path d="M24,0 L24,24 L0,24 L0,0 L24,0 Z M12.5934901,23.257841 L12.5819402,23.2595131 L12.5108777,23.2950439 L12.4918791,23.2987469 L12.4918791,23.2987469 L12.4767152,23.2950439 L12.4056548,23.2595131 C12.3958229,23.2563662 12.3870493,23.2590235 12.3821421,23.2649074 L12.3780323,23.275831 L12.360941,23.7031097 L12.3658947,23.7234994 L12.3769048,23.7357139 L12.4804777,23.8096931 L12.4953491,23.8136134 L12.4953491,23.8136134 L12.5071152,23.8096931 L12.6106902,23.7357139 L12.6232938,23.7196733 L12.6232938,23.7196733 L12.6266527,23.7031097 L12.609561,23.275831 C12.6075724,23.2657013 12.6010112,23.2592993 12.5934901,23.257841 L12.5934901,23.257841 Z M12.8583906,23.1452862 L12.8445485,23.1473072 L12.6598443,23.2396597 L12.6498822,23.2499052 L12.6498822,23.2499052 L12.6471943,23.2611114 L12.6650943,23.6906389 L12.6699349,23.7034178 L12.6699349,23.7034178 L12.678386,23.7104931 L12.8793402,23.8032389 C12.8914285,23.8068999 12.9022333,23.8029875 12.9078286,23.7952264 L12.9118235,23.7811639 L12.8776777,23.1665331 C12.8752882,23.1545897 12.8674102,23.1470016 12.8583906,23.1452862 L12.8583906,23.1452862 Z M12.1430473,23.1473072 C12.1332178,23.1423925 12.1221763,23.1452606 12.1156365,23.1525954 L12.1099173,23.1665331 L12.0757714,23.7811639 C12.0751323,23.7926639 12.0828099,23.8018602 12.0926481,23.8045676 L12.108256,23.8032389 L12.3092106,23.7104931 L12.3186497,23.7024347 L12.3186497,23.7024347 L12.3225043,23.6906389 L12.340401,23.2611114 L12.337245,23.2485176 L12.337245,23.2485176 L12.3277531,23.2396597 L12.1430473,23.1473072 Z" id="MingCute"></path>
                <path d="M4.92667,6.4925 C5.63229,6.42981 6.34176,6.63884 6.92665,6.98978 L9.95383,8.80609 C10.4898,8.30601 11.2092,8 12,8 C12.7908,8 13.5102,8.30601 14.0462,8.80609 L17.0734,6.98978 C17.6582,6.63884 18.3677,6.42981 19.0733,6.4925 C19.8092,6.55789 20.5279,6.92484 20.9753,7.67197 C21.5366,8.60941 22,9.99714 22,12 C22,14.0028 21.5366,15.3905 20.9753,16.328 C20.528,17.0751 19.8092,17.4421 19.0733,17.5075 C18.3677,17.5701 17.6582,17.3611 17.0734,17.0102 L14.0462,15.1939 C13.5102,15.694 12.7909,16 12,16 C11.2091,16 10.4898,15.694 9.9538,15.1939 L6.92665,17.0102 C6.34176,17.3611 5.63229,17.5701 4.92667,17.5075 C4.1908,17.4421 3.47205,17.0751 3.0247,16.328 C2.4634,15.3905 2,14.0028 2,12 C2,9.99714 2.4634,8.60941 3.0247,7.67197 C3.47205,6.92484 4.1908,6.55789 4.92667,6.4925 Z" id="路径" fill="#09244B"></path>
            </g>
        </g>
    </g>
</svg>

<svg xmlns="http://www.w3.org/2000/svg" width="24" height="24"><g fill="none" fill-rule="nonzero"><path d="M24 0v24H0V0h24ZM12.593 23.258l-.011.002-.071.035-.02.004-.014-.004-.071-.035c-.01-.004-.019-.001-.024.005l-.004.01-.017.428.005.02.01.013.104.074.015.004.012-.004.104-.074.012-.016.004-.017-.017-.427c-.002-.01-.009-.017-.017-.018Zm.265-.113-.013.002-.185.093-.01.01-.003.011.018.43.005.012.008.007.201.093c.012.004.023 0 .029-.008l.004-.014-.034-.614c-.003-.012-.01-.02-.02-.022Zm-.715.002a.023.023 0 0 0-.027.006l-.006.014-.034.614c0 .012.007.02.017.024l.015-.002.201-.093.01-.008.004-.011.017-.43-.003-.012-.01-.01-.184-.092Z"/><path fill="#09244B" d="M4.927 6.493c.705-.063 1.415.146 2 .497l3.027 1.816A2.99 2.99 0 0 1 12 8c.79 0 1.51.306 2.046.806l3.027-1.816c.585-.351 1.295-.56 2-.498.736.066 1.455.433 1.902 1.18C21.537 8.609 22 9.997 22 12s-.463 3.39-1.025 4.328c-.447.747-1.166 1.114-1.902 1.18-.705.062-1.415-.147-2-.498l-3.027-1.816A2.99 2.99 0 0 1 12 16a2.99 2.99 0 0 1-2.046-.806L6.927 17.01c-.585.351-1.295.56-2 .497-.736-.065-1.455-.432-1.902-1.179C2.463 15.391 2 14.003 2 12s.463-3.39 1.025-4.328c.447-.747 1.166-1.114 1.902-1.18Z"/></g></svg>
